X:1
T:Charles Hardie
C:J. Murdoch Henderson
R:Strathspey
Q: 128
K:A
M:4/4
L:1/16
|:D2|C3E A3c ((3B2A2G2) ((3A2G2F2) |EC3 A,3C E3F ED3|CE3 A3c ((3f2e2d2) ((3c2B2A2) |E3e cA3 B4 B3c|
((3d2c2d2) f3d cA3 e3c|f3d B3A ((3G2F2E2) ((3D2C2B,2) |E3C ((3E2A2E2) F3D ((3F2B2A2) |((3G2B2E2) ((3G2e2d2) cA3 A2:|
|:fg|a3A c3A e3A c3A|a3A c3A ((3G2A2B2) ((3e2f2g2) |a3A ce3 d3c d3f|((3B2c2d2) ((3^d2b2a2) ge3 e2fg|
a3A ce3 A3e ce3|a3A c3A ((3G2B2A2) ((3G2F2E2) |E3C ((3E2A2E2) F3D ((3F2B2A2) |((3G2B2E2) ((3G2e2d2) cA3 A2:|
